images/linkedin-icon.svg

<svg xmlns="http://www.w3.org/2000/svg" viewBox="-74.1 23.8 98.4 98.3" enable-background="new -74.1 23.8 98.4 98.3"><style type="text/css">.st0{fill:#FFFFFF;}</style><path class="st0" d="M-20.5 95.5c0-6-.1-11.6.1-17.2.1-1.6.4-3.3 1-4.8 1-2.6 3.6-3.8 6.4-3.4 2.8.4 3.8 2.5 4 4.9.2 1.7.2 3.5.2 5.3v15.2h10.5c0-7.9.2-15.5-.1-23.2-.1-4.2-1.3-8.1-5.4-10.3-4.8-2.5-11.3-1.6-15.3 2.1-.6.5-1.1 1-1.9 1.7-.1-1.5-.1-2.7-.2-3.9h-9.8v33.6h10.5zm-17.5 0v-33.6h-10.3v33.6h10.3zm-5.2-38.2c3.5.1 6.4-2.8 6.5-6.2.1-3.5-2.9-6.5-6.4-6.5-3.4 0-6.3 3-6.3 6.4s2.8 6.3 6.2 6.3zM-24.9 122.2c-27.1 0-49.2-22.1-49.2-49.2s22.1-49.2 49.2-49.2 49.2 22.1 49.2 49.2-22.1 49.2-49.2 49.2zm0-91.4c-23.3 0-42.2 18.9-42.2 42.2 0 23.3 18.9 42.2 42.2 42.2s42.2-18.9 42.2-42.2c0-23.3-18.9-42.2-42.2-42.2z"/></svg>

<?xml version="1.0" encoding="utf-8"?>
<!-- Generator: Adobe Illustrator 19.1.0, SVG Export Plug-In . SVG Version: 6.00 Build 0)  -->
<svg version="1.1" id="Layer_1" xmlns="http://www.w3.org/2000/svg" xmlns:xlink="http://www.w3.org/1999/xlink" x="0px" y="0px"
	 viewBox="-74.1 23.8 98.4 98.3" style="enable-background:new -74.1 23.8 98.4 98.3;" xml:space="preserve">
<style type="text/css">
	.st0{fill:#FFFFFF;}
</style>
<g>
	<path class="st0" d="M-20.5,95.5c0-6-0.1-11.6,0.1-17.2c0.1-1.6,0.4-3.3,1-4.8c1-2.6,3.6-3.8,6.4-3.4c2.8,0.4,3.8,2.5,4,4.9
		c0.2,1.7,0.2,3.5,0.2,5.3c0,5.1,0,10.1,0,15.2c3.7,0,7,0,10.5,0c0-7.9,0.2-15.5-0.1-23.2C1.5,68.1,0.3,64.2-3.8,62
		c-4.8-2.5-11.3-1.6-15.3,2.1c-0.6,0.5-1.1,1-1.9,1.7c-0.1-1.5-0.1-2.7-0.2-3.9c-3.3,0-6.5,0-9.8,0c0,11.3,0,22.5,0,33.6
		C-27.5,95.5-24.2,95.5-20.5,95.5z M-38,95.5c0-11.3,0-22.5,0-33.6c-3.6,0-6.9,0-10.3,0c0,11.3,0,22.4,0,33.6
		C-44.8,95.5-41.5,95.5-38,95.5z M-43.2,57.3c3.5,0.1,6.4-2.8,6.5-6.2c0.1-3.5-2.9-6.5-6.4-6.5c-3.4,0-6.3,3-6.3,6.4
		S-46.6,57.3-43.2,57.3z"/>
</g>
<path class="st0" d="M-24.9,122.2c-27.1,0-49.2-22.1-49.2-49.2S-52,23.8-24.9,23.8c27.1,0,49.2,22.1,49.2,49.2S2.2,122.2-24.9,122.2
	z M-24.9,30.8c-23.3,0-42.2,18.9-42.2,42.2c0,23.3,18.9,42.2,42.2,42.2S17.3,96.3,17.3,73C17.3,49.7-1.6,30.8-24.9,30.8z"/>
</svg>
